!!!OTL: Das Schwabentoechterlein Kejseren havde de Dottre tre,
!!!ARE: Nordeuropa, Daenemark
!!!YOR: 4, S. 50
!!    1891 gedruckt in Kobenhavn
!!!SCT: Q2073F
!!!YEM: Copyright 1995, estate of Helmut Schaffrath.
**kern
*ICvox
*Ivox
*M2/4
*k[b-]
*d:
=1
{8a
16a
16a
8a
16ffn
16ffn
=2
8ffn
8dd
8a}
{8ccn
=3
8ccn
8ccn
16ffn
16dd
16dd
16ccn
=4
4a
8ccn}
{8a
=5
8ccn
16ccn
16a
8b-
16b-
16g
=6
8a
16a
16fn
8d}
{8d
=7
8fn
16fn
16fn
8g
16g
16g
=8
4g
8b-}
{8a
=9
4fn
8a
8a
=10
8fn
16e
16e
4d}
==
!!!AGN: Ballade, Weglaufen, Schwangerschaft, Rueckkehr
!! Daenische Fassung der Ballade, mit "Die wiedergefundene Schwester"
!!    vermischt.
!!!ONB: ESAC (Essen Associative Code) Database: BALLADE
!!!AMT: simple duple
!!!AIN: vox
!!!EED: Helmut Schaffrath
!!!EEV: 1.0
*-
!!!title: @{OTL} [@{SCT}]
